packages/foundations/assets/icons/functional/images/editing/pen_28.svg

<svg width="28" height="28" viewBox="0 0 28 28" fill="none" xmlns="http://www.w3.org/2000/svg">
<g clip-path="url(#clip0_83_263)">
<path fill-rule="evenodd" clip-rule="evenodd" d="M21.8434 0C22.5634 0 23.2811 0.281453 23.9371 0.938177L27.0937 4.09823C27.656 4.69317 28 5.44371 28 6.25718C28 6.97683 27.7497 7.69648 27.0937 8.35321L10.0629 25.3399C9.688 25.7163 9.312 25.9978 8.62514 26.1534L1.25029 27.968C1.15657 28 1.03086 28 0.937143 28C0.688875 27.9991 0.451034 27.9 0.275481 27.7242C0.0999279 27.5485 0.000903348 27.3104 0 27.0618C0 26.9669 -5.74759e-08 26.873 0.0308571 26.7792L1.87543 19.3333C2 18.7384 2.25029 18.3642 2.68686 17.926L19.6891 0.938177C20.2514 0.375271 21.0309 0 21.8434 0ZM3.50057 20.9923L2.34286 25.6534L6.968 24.4956L3.49943 20.9923H3.50057ZM18.4686 4.97463L4.40571 19.021L8.93714 23.6203L23 9.54194L18.4686 4.97463ZM21.8126 2.03424C21.6779 2.03504 21.5448 2.06312 21.4212 2.1168C21.2977 2.17048 21.1863 2.24865 21.0937 2.34659L19.8754 3.56622L24.4377 8.16557L25.688 6.91391C25.8828 6.72464 25.9949 6.46596 26 6.19426C26 5.97573 25.9063 5.75606 25.688 5.50664L22.5314 2.34544C22.4382 2.24804 22.3265 2.17016 22.2029 2.11635C22.0793 2.06253 21.9462 2.03384 21.8114 2.03195L21.8126 2.03424Z" fill="#1A1C1F"/>
</g>
<defs>
<clipPath id="clip0_83_263">
<rect width="28" height="28" fill="white"/>
</clipPath>
</defs>
</svg>

<svg xmlns="http://www.w3.org/2000/svg" width="28" height="28" fill="none"><g clip-path="url(#a)"><path fill="#1A1C1F" fill-rule="evenodd" d="M21.843 0c.72 0 1.438.281 2.094.938l3.157 3.16c.562.595.906 1.346.906 2.16 0 .719-.25 1.438-.906 2.095L10.063 25.34c-.375.376-.751.658-1.438.813L1.25 27.968C1.157 28 1.03 28 .937 28A.94.94 0 0 1 0 27.062c0-.095 0-.189.03-.283l1.845-7.446c.125-.595.375-.969.812-1.407L19.689.938C20.251.375 21.031 0 21.843 0M3.501 20.992l-1.158 4.661 4.625-1.157-3.469-3.504zM18.469 4.975 4.406 19.02l4.531 4.6L23 9.54zm3.344-2.94a1 1 0 0 0-.72.312l-1.218 1.22 4.563 4.599 1.25-1.252a1.03 1.03 0 0 0 .312-.72c0-.218-.094-.438-.312-.687l-3.157-3.162a1.02 1.02 0 0 0-.72-.313z" clip-rule="evenodd"/></g><defs><clipPath id="a"><path fill="#fff" d="M0 0h28v28H0z"/></clipPath></defs></svg>
